X:907
T:Reel 907
L:1/8
M: 4/4
K: D Major
DA,B,EDEFA|BABcdedB|AFFEFEDF|E2EFDB,A,B,|DA,B,EDEFA|BABcdedB|AFDFEB,B,2|A,DEFD2:|D3ddefd|edBdAFDE|FDFAd3e|fdedBAFE|DB,B,2DEFA|BFF2AGEC|DFEDB,A,A,2|EFEDB,2:|.abc